packages/calcite-ui-icons/icons/dual-image-area-16.svg

<?xml version="1.0" encoding="UTF-8"?><svg id="icons" xmlns="http://www.w3.org/2000/svg" viewBox="0 0 16 16"><defs><style>.cls-1{fill:none;}</style></defs><rect class="cls-1" y="-.00024" width="16" height="16"/><path d="M2,7.99976v3h2v-1h-1v-1h1v1h5v-1h1v1h1v-2h-1v-1h1v-3h-3v1h-3v-1h-3v3h1v1h-1ZM9,4.99976h1v1h-1v-1ZM5,5.99976h3v1h1v1h-1v1h-3v-1h-1v-1h1v-1ZM3,4.99976h1v1h-1v-1ZM4,12.99976H0V1.99976h2V-.00024h13v10h-1V.99976H3v1h10v8h-1V2.99976H1v9h3v1ZM5,11.00024v5h11v-5H5ZM15,15.00024h-1v-1h-1v1h-1v-2h-1v2h-1v-1h-1v1h-1v-2h-1v2h-1v-3h9v3Z"/></svg>

<svg xmlns="http://www.w3.org/2000/svg" viewBox="0 0 16 16"><path fill="none" d="M0 0h16v16H0z"/><path d="M2 8v3h2v-1H3V9h1v1h5V9h1v1h1V8h-1V7h1V4H8v1H5V4H2v3h1v1H2zm7-3h1v1H9V5zM5 6h3v1h1v1H8v1H5V8H4V7h1V6zM3 5h1v1H3V5zm1 8H0V2h2V0h13v10h-1V1H3v1h10v8h-1V3H1v9h3v1zm1-2v5h11v-5H5zm10 4h-1v-1h-1v1h-1v-2h-1v2h-1v-1H9v1H8v-2H7v2H6v-3h9v3z"/></svg>
